media/img/mob-icon-noun-doctor.svg

<svg width="54" height="60" viewBox="0 0 54 60" fill="none" xmlns="http://www.w3.org/2000/svg">
<g clip-path="url(#clip0_623_4426)">
<path d="M43.3648 16.9149C43.3648 26.2553 36.0248 33.827 26.9705 33.827C17.9161 33.827 10.5762 26.2552 10.5762 16.9149C10.5762 7.57503 17.9161 0.00292969 26.9705 0.00292969C36.0248 0.00292969 43.3648 7.57466 43.3648 16.9149Z" fill="white"/>
<path d="M40.3616 31.0205C36.9824 34.6607 32.231 36.9341 26.9701 36.9341C21.7092 36.9341 16.9583 34.6611 13.5786 31.0205C5.47166 34.0501 0.00585938 40.0655 0.00585938 48.5793C0.00585938 61.2378 12.0778 59.9281 26.9701 59.9281C41.8624 59.9281 53.9343 61.238 53.9343 48.5793C53.9343 40.0657 48.4682 34.0505 40.3616 31.0205ZM32.6505 48.8782C32.6505 49.2783 32.3357 49.603 31.9478 49.603H28.6101V53.0462C28.6101 53.4463 28.2958 53.771 27.9074 53.771H26.0331C25.6443 53.771 25.3305 53.4463 25.3305 53.0462V49.603H21.9927C21.6049 49.603 21.2901 49.2783 21.2901 48.8782V46.9447C21.2901 46.5436 21.6049 46.2199 21.9927 46.2199H25.3305V42.7767C25.3305 42.3766 25.6448 42.0519 26.0331 42.0519H27.9074C28.2953 42.0519 28.6101 42.3766 28.6101 42.7767V46.2199H31.9478C32.3357 46.2199 32.6505 46.5441 32.6505 46.9447V48.8782Z" fill="white"/>
</g>
<defs>
<clipPath id="clip0_623_4426">
<rect width="54" height="60" fill="white"/>
</clipPath>
</defs>
</svg>

<svg width="54" height="60" viewBox="0 0 54 60" fill="none" xmlns="http://www.w3.org/2000/svg"><g clip-path="url(#clip0_623_4426)" fill="#fff"><path d="M43.365 16.915c0 9.34-7.34 16.912-16.395 16.912-9.054 0-16.394-7.572-16.394-16.912S17.916.003 26.971.003c9.054 0 16.394 7.572 16.394 16.912z"/><path d="M40.362 31.02c-3.38 3.64-8.131 5.914-13.392 5.914-5.26 0-10.012-2.273-13.391-5.913C5.472 34.05.006 40.064.006 48.578c0 12.659 12.072 11.35 26.964 11.35s26.964 1.309 26.964-11.35c0-8.513-5.466-14.529-13.572-17.559zM32.65 48.879c0 .4-.314.725-.702.725H28.61v3.443c0 .4-.314.725-.703.725h-1.874a.714.714 0 01-.703-.725v-3.443h-3.337a.714.714 0 01-.703-.725v-1.933c0-.401.315-.725.703-.725h3.338v-3.443c0-.4.314-.725.702-.725h1.874c.388 0 .703.325.703.725v3.443h3.338c.388 0 .703.324.703.725v1.933z"/></g><defs><clipPath id="clip0_623_4426"><path fill="#fff" d="M0 0h54v60H0z"/></clipPath></defs></svg>
